icons/cloudy-moon.svg

<svg width="24" height="24" viewBox="0 0 24 24" fill="none" xmlns="http://www.w3.org/2000/svg">
<path d="M14 7.776V7.685C14.003 6.14298 13.4999 4.64258 12.568 3.414C11.6579 2.2111 10.3611 1.35858 8.896 1C9.1455 2.1343 9.11461 3.31234 8.806 4.432C8.50233 5.54121 7.92738 6.55742 7.133 7.389C6.35274 8.2055 5.3743 8.806 4.293 9.132C3.22284 9.45323 2.08674 9.48566 1 9.226C1.2313 10.2745 1.70113 11.2555 2.373 12.093C2.94994 12.8121 3.6702 13.4033 4.488 13.829" stroke="white" stroke-width="2" stroke-linecap="round" stroke-linejoin="round"/>
<path d="M8.85401 14.3082C8.85401 12.9852 9.23901 11.6912 9.96201 10.5902C10.6791 9.49438 11.706 8.63667 12.912 8.1262C14.1108 7.61987 15.4346 7.48742 16.71 7.7462C17.9892 8.00657 19.1612 8.64393 20.075 9.5762C20.9973 10.5177 21.6229 11.7094 21.874 13.0032C22.1276 14.3008 21.9976 15.6442 21.5 16.8692C21.0065 18.0869 20.1643 19.1316 19.079 19.8722C18.0025 20.6063 16.73 20.9993 15.427 21.0002H7.69401C7.07557 20.9995 6.46497 20.8618 5.90601 20.5972C5.34445 20.3311 4.84785 19.9454 4.45101 19.4672C4.05113 18.9853 3.75984 18.4229 3.59701 17.8182C3.43393 17.2124 3.40211 16.5787 3.50369 15.9596C3.60526 15.3404 3.83789 14.7502 4.18601 14.2282C4.53313 13.7108 4.98824 13.2748 5.52001 12.9502C6.0481 12.6282 6.64107 12.4273 7.25616 12.3621C7.87125 12.2969 8.49315 12.369 9.07701 12.5732" stroke="white" stroke-width="2" stroke-linecap="round" stroke-linejoin="round"/>
</svg>

<svg
  width="24"
  height="24"
  viewBox="0 0 24 24"
  xmlns="http://www.w3.org/2000/svg"
  fill="none"
  stroke="currentColor"
  stroke-width="2"
  stroke-linecap="round"
  stroke-linejoin="round"
>
  <path d="M14 7.776v-.091a7.045 7.045 0 0 0-1.432-4.271A6.56 6.56 0 0 0 8.896 1a7.142 7.142 0 0 1-.09 3.432 6.93 6.93 0 0 1-1.673 2.957 6.539 6.539 0 0 1-2.84 1.743A6.334 6.334 0 0 1 1 9.226a6.987 6.987 0 0 0 1.373 2.867 6.645 6.645 0 0 0 2.115 1.736" />
  <path d="M8.854 14.308c0-1.323.385-2.617 1.108-3.718a6.6 6.6 0 0 1 2.95-2.464 6.46 6.46 0 0 1 3.798-.38 6.538 6.538 0 0 1 3.365 1.83 6.73 6.73 0 0 1 1.799 3.427 6.805 6.805 0 0 1-.374 3.866 6.667 6.667 0 0 1-2.421 3.003A6.49 6.49 0 0 1 15.427 21H7.694a4.19 4.19 0 0 1-1.788-.403 4.263 4.263 0 0 1-1.455-1.13 4.356 4.356 0 0 1-.854-1.649 4.406 4.406 0 0 1 .589-3.59A4.312 4.312 0 0 1 5.52 12.95a4.181 4.181 0 0 1 3.557-.377" />
</svg>
